X:1
T:F Major Thomas Ravenscroft, 1621
T:Thomas Sternhold, 1549 86. 86. (C. M.)
T:Psalm 22 (Chichester) No copyright. Transcribed from Ravenscroft, The Whole Booke of Psalmes, 1621.
%%score ( 1 2 ) ( 3 4 )
L:1/8
M:2/4
K:F
V:1 treble nm="Soprano" snm="S."
V:2 treble 
V:3 bass nm="Bass" snm="B."
V:4 bass 
V:1
"^5. They were delivered ever when   They called on thy name:    And for the faith they had in thee,   They were not put to shame.""^6. But I am now become a worm,      More like than any man:      An outcast whom the people scorn,  With all the spite they can.""^3. E'en Thou that in the sanctuary  And holy place dost dwell:   Thou art the comfort and the joy          And  glory  of    Israel.""^4. And he in whom our fathers old,  Had all their hope forever:  And when they put their trust in thee,  So dost thou them deliver." F4 A2 G2 B2 A2 d2 d2 c4 | %1
 A4 d2 c2 A2 =B2 c4 | c4 A2 d2 c2 A2 B2 c2 d4 | c4 A2 F2 B2 G2 F16 |] %4
V:2
 A,4 C2 E2 D2 C2 F2 F2 F4 | F4 F2 E2 F2 D2 E4 | F4 F2 F2 F2 C2 _E2 E2 F4 | %3
 z2 F2 C2 D F2 E/D/ E2 x16 |] %4
V:3
"^1. O God, my God, wherefore dost Thou  Forsake me utterly?   And help me not when I do make   My great complaint and cry?""^2. To Thee, my God, even all day long,     I do both cry and call.    I cease not all the night, and yet        Thou hearest not at all." C,4 F,2 G,2 F,2 A,2 B,2 B,2 A,4 | %1
 C4 B,2 A,2 A,2 D2 G,4 | A,4 C2 B,2 A,2 F,2 G,2 A,2 B,4 | A,4 F,2 A,2 D2 CB, A,16 |] %4
V:4
 F,,4 F,,2 C,2 D,2 F,2 B,,2 B,,2 F,4 | z2 F,2 B,,2 C,2 D,2 D,2 C,4 | %2
 F,4 F,2 B,,2 F,2 F,2 _E,2 C,2 B,,4 | F,4 F,2 D,2 B,,2 C,2 F,,16 |] %4

